X:12
T:Szabad élet, szabad madár
L:1/8
M:2/4
K:F
gffc | dc f2<g2 |
affc | cB c2<B2 |
c2>d2 BG | FF B2<c2 |
f2>B2 BF | Bc G2<G2 |

